favicon.svg

<svg width="16" height="16" viewBox="0 0 35 35" fill="none" xmlns="http://www.w3.org/2000/svg">
<path d="M28.7786 22.6036C28.9167 23.5978 28.5404 24.5473 27.859 25.1424C27.7324 25.2542 27.5954 25.3523 27.4492 25.4366C27.3169 25.5119 27.1788 25.5768 27.0326 25.6281C26.7012 25.7455 26.3559 25.7888 26.0163 25.7672C26.0071 25.7672 25.9979 25.7672 25.9887 25.7649C25.3051 25.7159 24.6467 25.4058 24.1806 24.9099C23.4244 24.1062 23.4463 23.1075 23.4554 22.8989C23.4554 22.7985 23.4601 22.7006 23.4716 22.6036H15.2538C15.2654 22.7006 15.2699 22.7985 15.2699 22.8989C15.2792 23.1075 15.3011 24.1062 14.5449 24.9099C14.0787 25.4058 13.4204 25.7159 12.7368 25.7649C12.7275 25.7672 12.7183 25.7672 12.709 25.7672C12.3696 25.7888 12.0243 25.7455 11.6929 25.6281C11.5466 25.5768 11.4085 25.5119 11.2762 25.4366C11.13 25.3523 10.993 25.2542 10.8664 25.1436C10.8653 25.1436 10.8653 25.1424 10.8653 25.1424C10.1851 24.5462 9.80871 23.5978 9.94683 22.6036H6.9866C7.00616 22.5306 7.02688 22.4566 7.04645 22.3836C7.41475 21.0281 7.78305 19.6715 8.15136 18.3159L8.39305 18.3045L11.2209 18.1792C11.3487 18.1735 11.4465 18.0674 11.4408 17.942C11.435 17.8154 11.3303 17.7174 11.2002 17.7243L8.5185 17.8428L8.27796 17.8542C8.41147 17.3595 8.54613 16.8658 8.67964 16.3722L8.91328 16.3916L11.1841 16.5796H11.2037C11.3222 16.5796 11.4235 16.4896 11.4327 16.371C11.4431 16.2457 11.3498 16.135 11.2232 16.1247L9.03528 15.9435L8.80164 15.9241C8.93744 15.4237 9.07327 14.9232 9.20907 14.4238L9.42544 14.507L11.58 15.3313C11.6065 15.3416 11.6353 15.3473 11.6629 15.3473C11.7549 15.3473 11.8424 15.2914 11.877 15.2014C11.923 15.0839 11.8643 14.9517 11.7457 14.9061L9.5463 14.0635L9.32992 13.9815C10.5235 9.58778 11.7181 5.19409 12.9117 0.801514C13.7738 3.42816 14.6346 6.05481 15.4955 8.68032C16.1033 8.37479 17.5201 7.74891 19.3546 7.77741H19.3708C21.2053 7.74891 22.6222 8.37479 23.2299 8.68032C24.0908 6.05481 24.9517 3.42816 25.8138 0.801514C27.0073 5.19409 28.202 9.58778 29.3955 13.9815L29.1792 14.0635L26.9797 14.9061C26.8611 14.9517 26.8012 15.0839 26.8473 15.2014C26.883 15.2914 26.9704 15.3473 27.0626 15.3473C27.0902 15.3473 27.1178 15.3416 27.1454 15.3313L29.2999 14.507L29.5164 14.4238C29.6521 14.9232 29.788 15.4237 29.9237 15.9241L29.6901 15.9435L27.5022 16.1247C27.3756 16.135 27.2812 16.2457 27.2915 16.371C27.3019 16.4896 27.4032 16.5796 27.5206 16.5796H27.5402L29.8122 16.3916L30.0458 16.3722C30.1793 16.8658 30.3139 17.3595 30.4474 17.8542L30.2069 17.8428L27.5241 17.7243C27.3941 17.7196 27.2893 17.8154 27.2836 17.942C27.2777 18.0674 27.3768 18.1735 27.5034 18.1792L30.3324 18.3045L30.5741 18.3159C30.9424 19.6715 31.3107 21.0281 31.679 22.3836C31.6986 22.4566 31.7192 22.5306 31.7388 22.6036H28.7786Z" fill="#F4E041"/>
<path d="M21.1868 14.9493C20.9163 14.9493 20.6977 14.7326 20.6977 14.4647V11.528C20.6977 11.2601 20.9163 11.0435 21.1868 11.0435C21.4572 11.0435 21.6759 11.2601 21.6759 11.528V14.4647C21.6759 14.7315 21.4572 14.9493 21.1868 14.9493Z" fill="black" fill-opacity="0.87"/>
<path d="M17.8256 14.4365C17.5573 14.4649 17.3157 14.2722 17.2869 14.0055L17.0486 11.7893C17.0198 11.5236 17.2144 11.2842 17.4837 11.2557C17.7519 11.2272 17.9936 11.4199 18.0224 11.6867L18.2605 13.9029C18.2894 14.1696 18.0948 14.4079 17.8256 14.4365Z" fill="black" fill-opacity="0.87"/>
<path d="M26.0154 25.7672C25.997 25.7672 25.9785 25.7649 25.9602 25.7604C25.8371 25.7306 25.7611 25.6064 25.7922 25.4845C25.8727 25.1595 25.9027 24.8289 25.8796 24.5017C25.86 24.2178 25.8002 23.9328 25.7035 23.6546C25.662 23.5361 25.7254 23.4061 25.8462 23.3651C25.9671 23.324 26.0971 23.3867 26.1385 23.5065C26.249 23.8222 26.3158 24.1471 26.3388 24.4709C26.3653 24.846 26.3307 25.2233 26.2387 25.595C26.2122 25.6976 26.1178 25.7672 26.0154 25.7672Z" fill="black" fill-opacity="0.87"/>
<path d="M27.5715 25.4718C27.5404 25.4718 27.5093 25.465 27.4782 25.4524C27.362 25.4011 27.309 25.2666 27.3608 25.1515C27.4829 24.8779 27.5266 24.6008 27.4932 24.3272C27.4632 24.0878 27.3736 23.8461 27.2251 23.6078C27.1583 23.5007 27.1916 23.3604 27.2999 23.2943C27.4081 23.2282 27.5497 23.2613 27.6164 23.3684C27.8006 23.6625 27.9121 23.967 27.9501 24.2725C27.9939 24.6282 27.9375 24.9862 27.7821 25.3361C27.7441 25.4217 27.6601 25.4718 27.5715 25.4718Z" fill="black" fill-opacity="0.87"/>
<path d="M12.707 25.7673C12.6035 25.7673 12.5102 25.6976 12.4838 25.594C12.3916 25.2235 12.3571 24.845 12.3836 24.4698C12.4054 24.145 12.4734 23.8211 12.5839 23.5054C12.6254 23.3868 12.7566 23.3229 12.8762 23.364C12.9959 23.405 13.0603 23.535 13.0189 23.6536C12.9222 23.9317 12.8624 24.2156 12.8429 24.5006C12.8198 24.8278 12.8498 25.1585 12.9303 25.4834C12.9602 25.6054 12.8854 25.7296 12.7623 25.7593C12.7438 25.765 12.7255 25.7673 12.707 25.7673Z" fill="black" fill-opacity="0.87"/>
<path d="M11.1509 25.4718C11.0622 25.4718 10.9782 25.4205 10.9402 25.3361C10.7849 24.9872 10.7273 24.6293 10.7722 24.2725C10.8102 23.967 10.9218 23.6637 11.106 23.3684C11.1727 23.2613 11.3143 23.2282 11.4225 23.2943C11.5307 23.3604 11.5641 23.5007 11.4973 23.6078C11.3488 23.845 11.2591 24.0878 11.2291 24.3272C11.1958 24.6008 11.2395 24.8779 11.3615 25.1515C11.4133 25.2666 11.3604 25.4011 11.2441 25.4524C11.213 25.4661 11.1819 25.4718 11.1509 25.4718Z" fill="black" fill-opacity="0.87"/>
<path d="M21.7043 18.6444C21.5385 19.0707 21.1553 19.5324 20.6685 19.6021C20.2184 19.6647 19.8041 19.4264 19.506 19.0559C19.4773 19.1345 19.4416 19.2155 19.3955 19.2964C19.3207 19.4288 18.9191 20.083 18.2492 20.083H18.2307C17.5931 20.0717 17.0396 19.496 16.9429 18.7424C16.9279 18.617 17.0166 18.503 17.1431 18.4881C17.2675 18.4722 17.3849 18.5611 17.3998 18.6854C17.4735 19.2668 17.8844 19.6213 18.2388 19.6271H18.248C18.6705 19.6271 18.9616 19.1312 18.9939 19.0742C19.1527 18.7914 19.1492 18.5018 19.1204 18.3115C19.1101 18.2762 19.1009 18.2408 19.0916 18.2055C18.6486 18.2568 18.2665 18.1029 18.1962 17.8223C18.1168 17.5032 18.4725 17.1407 18.9915 17.013C19.5118 16.8853 19.9975 17.0403 20.0769 17.3596C20.1436 17.6229 19.9146 17.9147 19.5417 18.0812C19.5531 18.1233 19.5635 18.1736 19.5728 18.2282C19.7592 18.8416 20.2358 19.2007 20.604 19.1505C20.8895 19.1094 21.1576 18.7822 21.2738 18.4813C21.3729 18.2259 21.3591 17.9854 21.3303 17.8292C21.3084 17.705 21.3912 17.5864 21.5155 17.5636C21.6421 17.5419 21.7607 17.624 21.7837 17.7471C21.8229 17.9615 21.8413 18.2898 21.7043 18.6444Z" fill="black" fill-opacity="0.87"/>
</svg>

<svg xmlns="http://www.w3.org/2000/svg" width="16" height="16" fill="none" viewBox="0 0 35 35"><path fill="#F4E041" d="M28.779 22.604c.138.994-.239 1.943-.92 2.538a2.52 2.52 0 0 1-1.843.625q-.014 0-.027-.002a2.78 2.78 0 0 1-1.808-.855c-.757-.804-.735-1.802-.726-2.011q0-.15.017-.295h-8.218q.016.145.016.295c.01.209.031 1.207-.725 2.01a2.78 2.78 0 0 1-1.808.856q-.015.003-.028.002a2.55 2.55 0 0 1-1.433-.33 2.6 2.6 0 0 1-.41-.293v-.002a2.85 2.85 0 0 1-.92-2.538h-2.96l.06-.22 1.105-4.068.242-.011 2.828-.126a.228.228 0 1 0-.02-.455l-2.683.119-.24.011.402-1.482.233.02 2.271.188h.02a.228.228 0 0 0 .02-.455l-2.189-.181-.233-.02.407-1.5.216.083 2.155.824q.04.015.083.016a.228.228 0 0 0 .083-.441l-2.2-.843-.216-.082L12.912.802l2.583 7.88c.608-.306 2.025-.932 3.86-.904h.016c1.834-.028 3.251.598 3.859.903L25.814.802l3.581 13.18-.216.082-2.2.842a.228.228 0 1 0 .166.425l2.155-.824.216-.083.408 1.5-.234.02-2.188.18a.23.23 0 0 0-.21.247.23.23 0 0 0 .229.209h.02l2.271-.188.234-.02.401 1.482-.24-.011-2.683-.119a.228.228 0 1 0-.02.455l2.828.126.242.01 1.105 4.069.06.22z"/><path fill="#000" fill-opacity="0.87" d="M21.187 14.95a.486.486 0 0 1-.49-.485v-2.937c0-.268.22-.485.49-.485s.489.217.489.485v2.937a.487.487 0 0 1-.49.484m-3.36-.512a.49.49 0 0 1-.54-.431l-.237-2.217a.486.486 0 0 1 .435-.533.49.49 0 0 1 .538.43l.239 2.217a.486.486 0 0 1-.435.534m8.189 11.33a.227.227 0 0 1-.223-.283 3.16 3.16 0 0 0-.089-1.83.227.227 0 0 1 .143-.289.23.23 0 0 1 .293.142 3.6 3.6 0 0 1 .1 2.089.23.23 0 0 1-.224.171m1.557-.295a.227.227 0 0 1-.21-.32q.181-.412.131-.825-.046-.36-.268-.72a.226.226 0 0 1 .075-.313.23.23 0 0 1 .316.074q.277.444.334.905c.044.355-.012.713-.168 1.063a.23.23 0 0 1-.21.136m-14.865.295a.23.23 0 0 1-.223-.173 3.6 3.6 0 0 1 .1-2.089.23.23 0 0 1 .292-.141c.12.041.184.171.143.29a3.16 3.16 0 0 0-.089 1.83.23.23 0 0 1-.168.275.2.2 0 0 1-.055.008m-1.557-.295a.23.23 0 0 1-.21-.136 2 2 0 0 1-.168-1.063q.057-.46.334-.905a.23.23 0 0 1 .316-.074.226.226 0 0 1 .075.314 1.8 1.8 0 0 0-.268.72c-.033.273.01.55.133.823a.227.227 0 0 1-.211.32m10.553-6.827c-.166.427-.549.888-1.035.958-.45.063-.865-.176-1.163-.546q-.042.118-.11.24c-.075.133-.477.787-1.147.787h-.018c-.638-.011-1.191-.587-1.288-1.34a.23.23 0 0 1 .2-.255.23.23 0 0 1 .257.197c.074.582.484.936.839.942h.009c.422 0 .714-.496.746-.553.159-.283.155-.572.126-.763q-.016-.052-.028-.105c-.443.05-.825-.103-.896-.384-.08-.319.276-.681.795-.809.52-.128 1.006.027 1.086.347.067.263-.162.555-.535.721q.017.065.03.147c.187.614.664.973 1.032.922.286-.04.554-.368.67-.669.099-.255.085-.496.056-.652a.23.23 0 0 1 .186-.265.23.23 0 0 1 .268.183c.039.215.057.543-.08.897"/></svg>
